public/svgs/duotone/rectangle-terminal.svg

<svg xmlns="http://www.w3.org/2000/svg" viewBox="0 0 512 512"><!-- Font Awesome Pro 6.0.0-alpha2 by @fontawesome - https://fontawesome.com License - https://fontawesome.com/license (Commercial License) --><defs><style>.fa-secondary{opacity:.4}</style></defs><path d="M448 32H64C28.654 32 0 60.656 0 96V416C0 451.344 28.654 480 64 480H448C483.346 480 512 451.344 512 416V96C512 60.656 483.346 32 448 32ZM120 368C113.516 368 107.047 365.375 102.312 360.219C93.359 350.437 94.016 335.25 103.781 326.312L180.484 256L103.781 185.688C94.016 176.75 93.359 161.562 102.312 151.781S126.453 141.375 136.219 150.313L232.219 238.313C237.172 242.844 240 249.281 240 256S237.172 269.156 232.219 273.688L136.219 361.688C131.609 365.906 125.797 368 120 368ZM392 384H248C234.75 384 224 373.25 224 360S234.75 336 248 336H392C405.25 336 416 346.75 416 360S405.25 384 392 384Z" class="fa-secondary"/><path d="M239.995 256C239.995 249.281 237.167 242.844 232.214 238.312L136.214 150.312C126.448 141.375 111.261 142 102.308 151.781S94.011 176.75 103.777 185.688L180.48 256L103.777 326.312C94.011 335.25 93.355 350.437 102.308 360.219C107.042 365.375 113.511 368 119.995 368C125.792 368 131.605 365.906 136.214 361.688L232.214 273.688C237.167 269.156 239.995 262.719 239.995 256ZM391.995 336H247.995C234.745 336 223.995 346.75 223.995 360S234.745 384 247.995 384H391.995C405.245 384 415.995 373.25 415.995 360S405.245 336 391.995 336Z" class="fa-primary"/></svg>

<svg xmlns="http://www.w3.org/2000/svg" viewBox="0 0 512 512"><!--! Font Awesome Pro 6.5.1 by @fontawesome - https://fontawesome.com License - https://fontawesome.com/license (Commercial License) Copyright 2023 Fonticons, Inc. --><defs><style>.fa-secondary{opacity:.4}</style></defs><path class="fa-secondary" d="M0 96C0 60.7 28.7 32 64 32H448c35.3 0 64 28.7 64 64V416c0 35.3-28.7 64-64 64H64c-35.3 0-64-28.7-64-64V96zm102.3 55.8c-9 9.8-8.3 25 1.5 33.9L180.5 256l-76.7 70.3c-9.8 9-10.4 24.1-1.5 33.9s24.1 10.4 33.9 1.5l96-88c5-4.5 7.8-11 7.8-17.7s-2.8-13.1-7.8-17.7l-96-88c-9.8-9-25-8.3-33.9 1.5zM248 336c-13.3 0-24 10.7-24 24s10.7 24 24 24H392c13.3 0 24-10.7 24-24s-10.7-24-24-24H248z"/><path class="fa-primary" d="M103.8 185.7c-9.8-9-10.4-24.1-1.5-33.9s24.1-10.4 33.9-1.5l96 88c5 4.5 7.8 11 7.8 17.7s-2.8 13.1-7.8 17.7l-96 88c-9.8 9-25 8.3-33.9-1.5s-8.3-25 1.5-33.9L180.5 256l-76.7-70.3zM248 336H392c13.3 0 24 10.7 24 24s-10.7 24-24 24H248c-13.3 0-24-10.7-24-24s10.7-24 24-24z"/></svg>
